htdocs/bitrix/js/ui/icons/service/images/ui-service-light-ya-dialogs.svg

<svg xmlns="http://www.w3.org/2000/svg" xmlns:xlink="http://www.w3.org/1999/xlink" width="42" height="42" viewBox="0 0 42 42"><path fill="#80868E" d="M28.8170335,24.0591798 C28.7486131,24.904848 28.3736128,25.5589794 27.6575195,25.9957397 C26.5646095,26.6623846 25.4561585,27.303397 24.3551752,27.9569229 C24.2264076,28.0332147 24.1034931,28.1193962 23.9777529,28.2009355 C23.6261649,28.3131531 23.3589418,28.6163019 22.9439791,28.6009628 C22.367956,28.5795688 21.9051595,28.2205131 21.8980955,27.6457009 C21.8811417,26.2778982 21.8502617,24.9064626 21.9313974,23.5428984 C21.9879099,22.588242 22.5455665,21.8354156 23.2772006,21.227907 C23.4271604,21.103176 23.5839824,20.9865182 23.7379788,20.8662274 C25.2343472,20.0159172 26.7307157,19.1656069 28.2272859,18.3152967 C28.7696034,18.0073039 28.8991784,18.0710822 28.8882796,18.6771781 C28.8557849,20.4710441 28.9621494,22.2663229 28.8170335,24.0591798 M19.492886,18.4674766 C18.1412298,17.6589451 16.7607118,16.8986511 15.394322,16.1149448 C14.8764259,15.8178509 14.8590685,15.6543685 15.3581944,15.3657514 C16.8771678,14.4873868 18.4025998,13.6203246 19.9328757,12.7615375 C20.791461,12.279769 21.6615506,12.3231625 22.5205395,12.7784912 C22.8658709,12.9615511 23.2067619,13.1524824 23.5498731,13.3399826 C24.4966582,13.8905751 25.4357737,14.4548921 26.3932557,14.9857053 C26.837282,15.2319381 27.1386143,15.5534534 27.1321558,16.0699367 C27.1261008,16.5848053 26.7605865,16.852432 26.352486,17.0867568 C25.380674,17.6450189 24.4171371,18.2182164 23.4505727,18.7851572 C22.0724767,19.4096195 20.7714798,19.2326145 19.492886,18.4674766 M19.7998696,28.2132472 C19.7940166,28.7868483 19.6474879,28.8708097 19.1655176,28.5957152 C17.7038639,27.7613495 16.2153669,26.9699737 14.7940792,26.0720315 C14.0440785,25.5981344 13.5098342,24.9014169 13.5235587,23.9011468 C13.5449526,22.3490733 13.5037793,20.7961924 13.5108434,19.2441188 C13.5146781,18.3586901 14.3076686,17.9132511 15.0812835,18.3483968 C16.0129313,18.8723478 16.9298454,19.4227385 17.865328,19.9390199 C19.169756,20.6591498 19.7409352,21.8043338 19.7960349,23.2393459 C19.827924,24.0670512 19.8018879,24.8969766 19.8018879,25.7262965 C19.8018879,26.5552128 19.8081447,27.3843309 19.7998696,28.2132472 M28.8293452,13.8790708 C28.2787526,13.5654268 27.7186741,13.2612688 27.1797877,12.9349096 C25.9470093,12.1885418 24.7124145,11.4466143 23.4618752,10.7309247 C22.1711716,9.91351279 20.799736,9.72661811 19.4410157,10.4528028 C17.7569452,11.353167 16.1295891,12.3596937 14.4800316,13.3244417 C14.0251065,13.5904538 13.5643283,13.8504109 13.1312009,14.1491195 C12.0251719,14.9122392 11.442892,15.9914248 11.4253328,17.3224944 C11.3938473,19.6903652 11.3910217,22.0594471 11.4269475,24.4273179 C11.4487451,25.8673758 12.0980326,27.0113489 13.3453427,27.7575148 C15.3842305,28.9771741 17.4437049,30.1623206 19.4852165,31.3779433 C19.7990623,31.564838 20.1320989,31.7074632 20.4721657,31.7464851 L21.8304824,31.7464851 C22.7558734,31.4903627 23.5847897,31.0392724 24.3678905,30.4947347 C26.0043291,29.5295832 27.7130505,28.6923079 29.2695366,27.586161 C30.9715576,26.3765869 30.9731618,24.7471301 30.9718634,24.6007857 C30.9254025,19.3643432 30.9001433,16.734734 30.8960855,16.7119583 C30.666201,15.4319517 29.9375943,14.5103954 28.8293452,13.8790708 Z"/></svg>

<svg xmlns="http://www.w3.org/2000/svg" width="42" height="42" viewBox="0 0 42 42"><path fill="#80868E" d="M28.817 24.06c-.068.845-.443 1.499-1.16 1.936-1.092.666-2.2 1.307-3.302 1.96-.129.077-.252.163-.377.245-.352.112-.62.415-1.034.4-.576-.021-1.039-.38-1.046-.955-.017-1.368-.048-2.74.033-4.103.057-.955.615-1.708 1.346-2.315.15-.125.307-.241.461-.362l4.49-2.55c.542-.309.671-.245.66.361-.032 1.794.074 3.59-.071 5.382m-9.324-5.592c-1.352-.808-2.732-1.568-4.099-2.352-.518-.297-.535-.46-.036-.75a408.602 408.602 0 0 1 4.575-2.603c.858-.482 1.729-.439 2.588.016.345.184.686.374 1.029.562.947.55 1.886 1.115 2.843 1.646.444.246.746.567.74 1.084-.007.515-.372.782-.78 1.017-.972.558-1.936 1.131-2.902 1.698-1.379.625-2.68.448-3.958-.318m.307 9.746c-.006.574-.153.658-.634.383-1.462-.835-2.95-1.626-4.372-2.524-.75-.474-1.284-1.17-1.27-2.17.021-1.553-.02-3.106-.013-4.658.004-.885.797-1.33 1.57-.896.932.524 1.849 1.075 2.784 1.591 1.305.72 1.876 1.865 1.931 3.3.032.828.006 1.658.006 2.487 0 .83.006 1.658-.002 2.487m9.03-14.334c-.551-.314-1.111-.618-1.65-.944a175.673 175.673 0 0 0-3.718-2.204c-1.29-.817-2.662-1.004-4.021-.278-1.684.9-3.311 1.907-4.961 2.871-.455.266-.916.526-1.349.825-1.106.763-1.688 1.842-1.706 3.173-.031 2.368-.034 4.737.002 7.105.022 1.44.671 2.584 1.918 3.33 2.04 1.22 4.099 2.405 6.14 3.62.314.188.647.33.987.37h1.358c.926-.257 1.755-.708 2.538-1.252 1.636-.965 3.345-1.803 4.902-2.909 1.702-1.21 1.703-2.839 1.702-2.985-.047-5.237-.072-7.866-.076-7.889-.23-1.28-.958-2.202-2.067-2.833z"/></svg>
